dist/img/swiggle1.svg

<?xml version="1.0" encoding="UTF-8"?>
<svg width="113px" height="26px" viewBox="0 0 113 26" version="1.1" xmlns="http://www.w3.org/2000/svg" xmlns:xlink="http://www.w3.org/1999/xlink">
    <!-- Generator: Sketch 46.2 (44496) - http://www.bohemiancoding.com/sketch -->
    <title>swiggle1</title>
    <desc>Created with Sketch.</desc>
    <defs>
        <polygon id="path-1" points="0.000542855332 0.206501181 90.7037664 0.206501181 90.7037664 8.19963722 0.000542855332 8.19963722"></polygon>
        <polygon id="path-3" points="91.002783 0.520509766 91.002783 8.51390866 0.300057834 8.51390866 0.300057834 0.520509766 91.002783 0.520509766"></polygon>
    </defs>
    <g id="SBLY-homepage" stroke="none" stroke-width="1" fill="none" fill-rule="evenodd">
        <g id="sbly-homepage" transform="translate(-494.000000, -224.000000)">
            <g id="02-featured" transform="translate(0.000000, 112.000000)">
                <g id="feature-callout" transform="translate(60.000000, 56.000000)">
                    <g id="swiggle1" transform="translate(434.000000, 56.000000)">
                        <g id="Group-3" transform="translate(0.000000, 0.422278)">
                            <mask id="mask-2" fill="white">
                                <use xlink:href="#path-1"></use>
                            </mask>
                            <g id="Clip-2"></g>
                            <path d="M57.9985357,0.206238327 L58.0011643,0.206238327 C60.7164491,0.206238327 63.2556215,1.35491156 65.1508009,3.43671752 C66.6122708,5.04275722 68.5547639,5.92594763 70.6234272,5.92594763 C72.6920904,5.92594763 74.6372122,5.04275722 76.098682,3.43671752 C77.99649,1.35228302 80.5382909,0.206238327 83.2535757,0.206238327 L83.2562043,0.206238327 C85.9741176,0.206238327 88.51329,1.35491156 90.4084694,3.43671752 C90.8290363,3.90196961 90.7974938,4.62219036 90.3322417,5.04275722 C89.8669896,5.46332408 89.1441403,5.43178157 88.7235734,4.96652948 C87.2673607,3.36311832 85.3248675,2.47729937 83.2588328,2.47729937 L83.2535757,2.47729937 C81.187541,2.47729937 79.2424193,3.36048978 77.7783209,4.96652948 C75.8805129,7.05096398 73.338712,8.19963722 70.6234272,8.19963722 C67.9081424,8.19963722 65.3663414,7.05096398 63.4685335,4.96652948 C62.0096922,3.36311832 60.067199,2.47729937 58.0037928,2.47729937 L57.9985357,2.47729937 C55.9298725,2.47729937 53.9847508,3.36048978 52.5206524,4.96652948 C50.6202159,7.05096398 48.083672,8.19963722 45.3631301,8.19963722 C42.6478453,8.19963722 40.1060444,7.05096398 38.2082364,4.96652948 C35.2800397,1.75445008 30.1806665,1.75445008 27.2524697,4.96652948 C25.3520332,7.05096398 22.8102322,8.19963722 20.0923189,8.19963722 L20.0896904,8.19963722 C17.3744056,8.19963722 14.8299761,7.05096398 12.9321681,4.96652948 C11.4733268,3.36048978 9.53083362,2.47729937 7.45691329,2.47729937 L7.45428475,2.47729937 C5.3856215,2.47729937 3.44049977,3.36048978 1.97902993,4.96652948 C1.55057744,5.42652448 0.832985238,5.46332408 0.370361691,5.04275722 C-0.092261855,4.61956182 -0.126432912,3.89934107 0.299391034,3.43671752 C2.19457045,1.35228302 4.73899995,0.206238327 7.45428475,0.206238327 L7.45691329,0.206238327 C10.1748266,0.206238327 12.7166276,1.35228302 14.6170641,3.43671752 C16.0759054,5.04275722 18.0210271,5.92594763 20.0896904,5.92594763 L20.0923189,5.92594763 C22.1636107,5.92594763 24.1087324,5.04275722 25.5728308,3.43671752 C29.3658182,-0.732151481 36.0922594,-0.732151481 39.8852468,3.43671752 C41.3493452,5.04275722 43.2944669,5.92594763 45.3631301,5.92594763 C47.4317934,5.92594763 49.3795437,5.04275722 50.8410135,3.43671752 C52.74145,1.35228302 55.283251,0.206238327 57.9985357,0.206238327" id="Fill-1" fill="#3BEFF3" mask="url(#mask-2)"></path>
                        </g>
                        <g id="Group-6" transform="translate(21.028343, 17.193536)">
                            <mask id="mask-4" fill="white">
                                <use xlink:href="#path-3"></use>
                            </mask>
                            <g id="Clip-5"></g>
                            <path d="M58.2987153,0.520509766 L58.3013439,0.520509766 C61.0166287,0.520509766 63.5558011,1.669183 65.4536091,3.75098896 C66.9098218,5.35702866 68.8549435,6.24021907 70.9236068,6.24021907 L70.9262353,6.24021907 C72.9948986,6.24021907 74.9373918,5.35702866 76.3988616,3.75098896 C78.2966696,1.66655446 80.8384705,0.520509766 83.5537553,0.520509766 L83.5563839,0.520509766 C86.2769257,0.520509766 88.8108411,1.669183 90.7060205,3.75098896 C91.1292159,4.21624105 91.0976734,4.9364618 90.6297927,5.35702866 C90.1671692,5.77759552 89.4469484,5.74605301 89.0263816,5.28080092 C87.5701688,3.67738976 85.6250471,2.79157081 83.5590124,2.79157081 L83.5537553,2.79157081 C81.4850921,2.79157081 79.5425989,3.67476122 78.075872,5.28080092 C76.1806925,7.36523542 73.6388916,8.51390866 70.9262353,8.51390866 L70.9236068,8.51390866 C68.2056935,8.51390866 65.6691496,7.36523542 63.7687131,5.28080092 C62.3098718,3.67738976 60.3700071,2.79157081 58.3013439,2.79157081 L58.2987153,2.79157081 C56.2300521,2.79157081 54.2875589,3.67476122 52.820832,5.28080092 C50.923024,7.36523542 48.3838516,8.51390866 45.6659383,8.51390866 L45.6606812,8.51390866 C42.9453964,8.51390866 40.4035954,7.36523542 38.508416,5.28080092 C35.5828478,2.06872152 30.4808461,2.06872152 27.5500208,5.28080092 C25.6548413,7.36523542 23.1077833,8.51390866 20.3924985,8.51390866 C17.6745852,8.51390866 15.1301557,7.36523542 13.2323477,5.28080092 C11.7735064,3.67476122 9.82838467,2.79157081 7.75709289,2.79157081 L7.75446434,2.79157081 C5.68317256,2.79157081 3.74067937,3.67476122 2.27658099,5.28080092 C1.8481285,5.74079592 1.13053629,5.77759552 0.670541288,5.35702866 C0.205289199,4.93383326 0.176375227,4.21361251 0.594313545,3.75098896 C2.49737859,1.66655446 5.03655101,0.520509766 7.75446434,0.520509766 L7.75709289,0.520509766 C10.4750062,0.520509766 13.0168072,1.66655446 14.9146151,3.75098896 C16.376085,5.35702866 18.3185782,6.24021907 20.3924985,6.24021907 C22.4637903,6.24021907 24.4062835,5.35702866 25.8730104,3.75098896 C29.6686263,-0.417880042 36.392439,-0.417880042 40.1880549,3.75098896 C41.6521533,5.35702866 43.5920179,6.24021907 45.6606812,6.24021907 L45.6659383,6.24021907 C47.7346015,6.24021907 49.6770947,5.35702866 51.1438216,3.75098896 C53.039001,1.66655446 55.580802,0.520509766 58.2987153,0.520509766" id="Fill-4" fill="#3BEFF3" mask="url(#mask-4)"></path>
                        </g>
                    </g>
                </g>
            </g>
        </g>
    </g>
</svg>

<svg width="113" height="26" viewBox="0 0 113 26" xmlns="http://www.w3.org/2000/svg" xmlns:xlink="http://www.w3.org/1999/xlink">
  <title>
    swiggle1
  </title>
  <defs>
    <path id="a" d="M0 .2h90.7v8H0z"/>
    <path id="c" d="M91 .52v8H.3v-8H91z"/>
  </defs>
  <g fill="none" fill-rule="evenodd">
    <g transform="translate(0 .422)">
      <mask id="b" fill="#fff">
        <use xlink:href="#a"/>
      </mask>
      <path d="M58 .2c2.72 0 5.26 1.15 7.15 3.24 1.46 1.6 3.4 2.5 5.47 2.5s4.02-.9 5.48-2.5C78 1.34 80.54.2 83.25.2c2.72 0 5.26 1.15 7.16 3.24.5.46.4 1.18 0 1.6-.4.42-1.2.4-1.6-.07-1.4-1.6-3.4-2.5-5.4-2.5s-4 .9-5.5 2.5C76 7.05 73.4 8.2 70.7 8.2s-5.25-1.15-7.15-3.23c-1.48-1.6-3.4-2.5-5.5-2.5s-4 .9-5.45 2.5c-2 2.08-4.5 3.23-7.2 3.23s-5.3-1.15-7.2-3.23c-2.93-3.22-8.03-3.22-10.96 0-1.9 2.08-4.5 3.23-7.2 3.23S14.8 7.05 12.9 4.97c-1.45-1.6-3.4-2.5-5.46-2.5s-4.03.9-5.5 2.5c-.43.46-1.15.5-1.6.07-.47-.42-.5-1.14-.1-1.6C2.2 1.34 4.76.2 7.46.2s5.28 1.15 7.18 3.24c1.46 1.6 3.4 2.5 5.47 2.5s4-.9 5.5-2.5c3.8-4.17 10.5-4.17 14.3 0 1.5 1.6 3.4 2.5 5.5 2.5s4-.9 5.5-2.5C52.8 1.34 55.3.2 58 .2" fill="#3BEFF3" mask="url(#b)"/>
    </g>
    <g transform="translate(21.028 17.194)">
      <mask id="d" fill="#fff">
        <use xlink:href="#c"/>
      </mask>
      <path d="M58.3.52c2.72 0 5.26 1.15 7.15 3.23 1.46 1.6 3.4 2.5 5.47 2.5s4.02-.9 5.48-2.5C78.3 1.67 80.84.52 83.55.52c2.73 0 5.26 1.15 7.16 3.23.5.47.4 1.2 0 1.6-.4.43-1.2.4-1.6-.07-1.4-1.6-3.4-2.5-5.4-2.5s-4 .9-5.5 2.5C76.3 7.38 73.7 8.5 71 8.5c-2.73 0-5.27-1.1-7.17-3.2-1.48-1.6-3.4-2.5-5.5-2.5s-4 .9-5.45 2.5c-1.9 2.1-4.44 3.28-7.15 3.28-2.72 0-5.27-1.13-7.16-3.22-2.92-3.2-8.02-3.2-10.95 0-1.9 2.1-4.46 3.24-7.2 3.24-2.7 0-5.24-1.14-7.14-3.23-1.46-1.6-3.4-2.5-5.47-2.5-2.1 0-4 .9-5.5 2.5-.4.47-1.1.5-1.6.1C.2 4.97.2 4.22.6 3.8 2.5 1.64 5.04.5 7.75.5c2.73 0 5.27 1.15 7.16 3.23 1.5 1.6 3.5 2.5 5.5 2.5s4-.9 5.5-2.5c3.8-4.17 10.5-4.17 14.3 0 1.5 1.6 3.4 2.5 5.5 2.5s4-.9 5.5-2.5c1.9-2.06 4.5-3.2 7.2-3.2" fill="#3BEFF3" mask="url(#d)"/>
    </g>
  </g>
</svg>
